svg/distribution_box_outline.svg

<svg width="24" height="24" viewBox="0 0 24 24" xmlns="http://www.w3.org/2000/svg"><path d="M8 18h2v3H8v-3zM12 18h2v3h-2v-3zM7 5h11v3h2V5a2 2 0 0 0-2-2H7a2 2 0 0 0-2 2v11a2 2 0 0 0 2 2h11a2 2 0 0 0 2-2v-3h-2v3H7V5z"/><path d="M18 9h2v3h-2V9zM4 6h2v3H4V6zM4 12h2v3H4v-3zM10 11l3-4v3h2l-3 4v-3h-2z"/></svg>

<svg width="24" height="24" viewBox="0 0 24 24"  xmlns="http://www.w3.org/2000/svg">
<path d="M8 18H10V21H8V18Z" />
<path d="M12 18H14V21H12V18Z" />
<path d="M7 5H18V8H20V5C20 3.89543 19.1046 3 18 3H7C5.89543 3 5 3.89543 5 5V16C5 17.1046 5.89543 18 7 18H18C19.1046 18 20 17.1046 20 16V13H18V16H7V5Z" />
<path d="M18 9H20V12H18V9Z" />
<path d="M4 6H6V9H4V6Z" />
<path d="M4 12H6V15H4V12Z" />
<path d="M10 11L13 7V10H15L12 14V11H10Z" />
</svg>
